icon-themes/sifr_svg/svx/res/zetlver2.svg

<svg viewBox="0 0 16 16" xmlns="http://www.w3.org/2000/svg"><path d="m0 0v16h16v-16zm2 2h5v12h-5zm7 0h5v12h-5z" fill="#555753"/></svg>

<svg xmlns="http://www.w3.org/2000/svg" viewBox="0 0 16 16">
  <path
     style="fill:#555753"
     d="M 0,0 V 16 H 16 V 0 Z M 2,2 H 7 V 14 H 2 Z m 7,0 h 5 V 14 H 9 Z"
     />
</svg>
